assets/icons/traton/image_set.svg

<svg xmlns="http://www.w3.org/2000/svg" width="32" height="32" viewBox="0 0 32 32" fill="none">
<path d="M6 10.2197H2V26H26V22H30V6H6V10.2197ZM6 22H24V24H4V12.2197H6V22ZM28 17.6807V20H8.51074L13.4922 15.0176L16.0312 17.5566L21.9531 11.6338L28 17.6807ZM28 14.8516L21.9541 8.80566L16.0303 14.7285L13.4922 12.1904L8 17.6826V8H28V14.8516Z" fill="black" />
</svg>

<svg xmlns="http://www.w3.org/2000/svg" fill="none" viewBox="0 0 32 32"><path fill="#000" d="M6 10.2H2V26h24v-4h4V6H6zM6 22h18v2H4V12.2h2zm22-4.3V20H8.5l5-5 2.5 2.6 6-6zm0-2.8-6-6-6 5.8-2.5-2.5L8 17.7V8h20z"/></svg>
